openmetadata-ui/src/main/resources/ui/src/assets/svg/ic-reply.svg

<svg width="16" height="16" viewBox="0 0 16 16" fill="none" xmlns="http://www.w3.org/2000/svg">
<g clip-path="url(#clip0)">
<path d="M15.5 14.6667C15.32 14.6667 15.1507 14.5693 15.0613 14.406L15.0473 14.3807C13.552 11.68 10.7027 10 7.612 10H6.66667V12.8333C6.66667 13.034 6.546 13.2153 6.36133 13.294C6.178 13.3713 5.962 13.3327 5.81867 13.192L0.152 7.692C0.0546667 7.598 0 7.46866 0 7.33333C0 7.198 0.0546667 7.06866 0.152 6.97466L5.81867 1.47466C5.96267 1.33466 6.178 1.29466 6.36133 1.37266C6.546 1.45133 6.66667 1.63266 6.66667 1.83333V4.66799C11.8287 4.75733 16 8.984 16 14.1667C16 14.3953 15.8453 14.5947 15.624 14.6513C15.5827 14.662 15.5413 14.6667 15.5 14.6667ZM6.16667 9H7.612C10.396 9 13.0047 10.2193 14.788 12.274C13.9253 8.49466 10.5367 5.66666 6.5 5.66666H6.16667C5.89067 5.66666 5.66667 5.44266 5.66667 5.16666V3.01533L1.218 7.33333L5.66667 11.6513V9.5C5.66667 9.224 5.89067 9 6.16667 9Z" fill="#72706B"/>
</g>
<defs>
<clipPath id="clip0">
<rect width="16" height="16" fill="white"/>
</clipPath>
</defs>
</svg>

<svg xmlns="http://www.w3.org/2000/svg" width="16" height="16" fill="none"><g clip-path="url(#a)"><path fill="#72706B" d="M15.5 14.667a.5.5 0 0 1-.439-.261l-.014-.025A8.502 8.502 0 0 0 7.612 10h-.945v2.833a.502.502 0 0 1-.848.359l-5.667-5.5a.498.498 0 0 1 0-.717l5.667-5.5a.5.5 0 0 1 .848.358v2.835C11.829 4.758 16 8.984 16 14.167a.5.5 0 0 1-.5.5ZM6.167 9h1.445a9.505 9.505 0 0 1 7.176 3.274c-.863-3.78-4.251-6.607-8.288-6.607h-.333a.5.5 0 0 1-.5-.5V3.015L1.218 7.333l4.449 4.318V9.5a.5.5 0 0 1 .5-.5Z"/></g><defs><clipPath id="a"><path fill="#fff" d="M0 0h16v16H0z"/></clipPath></defs></svg>
